src/lib/packages/icons/src/assets/filled/bookmarks-heart.svg

<svg width="24" height="24" viewBox="0 0 24 24" fill="none" xmlns="http://www.w3.org/2000/svg">
<path d="M19.9971 4.56995V18L19.99 17.986V18L17.6411 16.656C17.5471 16.603 17.49 16.503 17.49 16.396C17.49 16.396 17.49 8.50495 17.49 8.47095C17.449 5.98395 15.9439 4.501 13.4299 4.5H8.21704C8.04304 4.5 7.9911 4.34805 8.0061 4.17505C8.1311 2.73105 8.98506 2 10.5601 2H17.4199H17.427C19.137 2 19.9971 2.85995 19.9971 4.56995ZM16 8.57104V22L10 18.572L4 22V8.57104C4 6.85705 4.85704 6 6.57104 6H13.428C15.143 6 16 6.85705 16 8.57104ZM11.437 9.43103C10.362 9.42603 10 10.51 10 10.51C10 10.51 9.63899 9.42603 8.56299 9.43103C7.11899 9.43803 6.55104 10.787 6.81104 12.127C7.23504 14.312 10 15.5699 10 15.5699C10 15.5699 12.765 14.312 13.189 12.127C13.449 10.786 12.884 9.43803 11.437 9.43103Z" fill="currentColor"/>
</svg>

<svg xmlns="http://www.w3.org/2000/svg" width="24" height="24" fill="none"><path fill="currentColor" d="M19.997 4.57V18l-.007-.014V18l-2.349-1.344a.298.298 0 0 1-.151-.26V8.471c-.041-2.487-1.546-3.97-4.06-3.971H8.217c-.174 0-.226-.152-.21-.325C8.13 2.731 8.984 2 10.56 2h6.867c1.71 0 2.57.86 2.57 2.57ZM16 8.57V22l-6-3.428L4 22V8.571C4 6.857 4.857 6 6.571 6h6.857C15.143 6 16 6.857 16 8.571Zm-4.563.86C10.362 9.426 10 10.51 10 10.51s-.361-1.084-1.437-1.079c-1.444.007-2.012 1.356-1.752 2.696C7.235 14.312 10 15.57 10 15.57s2.765-1.258 3.189-3.443c.26-1.341-.305-2.689-1.752-2.696Z"/></svg>
